X: 1256
T: Mary Grace
M:C|
L:1/8
R:Reel
B:O'Neill's 1256
N:Collected by F. O'Neill
Z:Transcribed by Trish O'Neil
K:Am
B \
| c>A (3AAA E>A (3AAA | BGdc BGG2 \
|1 c>A (3AAA E>A (3AAA | cded cA A :|2 A^GAB cBcd | egdB ({c}BA) A ||
|| Bde^f gfgd | B>G (3GGG D>G (3GGG \
| Bde^fg2(fg) |1 egdB ({c}BA)A2 :|2 abaf gfed |]


